assets/svg/currencies/fiat/CAD.svg

<svg width="300" height="300" viewBox="0 0 300 300" fill="none" xmlns="http://www.w3.org/2000/svg">
<path d="M150 300C232.843 300 300 232.843 300 150C300 67.1573 232.843 0 150 0C67.1573 0 0 67.1573 0 150C0 232.843 67.1573 300 150 300Z" fill="#10BA97"/>
<path d="M138.8 106.8L122.78 117.42C117.86 108.18 111.62 103.56 104.06 103.56C100.1 103.56 96.9199 104.88 94.5199 107.52C92.1199 110.04 90.9199 113.28 90.9199 117.24C90.9199 124.92 97.2799 131.76 110 137.76C115.16 140.04 119.24 142.02 122.24 143.7C125.24 145.26 128.78 147.6 132.86 150.72C136.94 153.84 139.94 157.5 141.86 161.7C143.9 165.9 144.92 170.7 144.92 176.1C144.92 185.82 142.1 194.1 136.46 200.94C130.94 207.66 123.56 211.86 114.32 213.54V229.2H96.3199V213.54C88.0399 211.86 81.0199 208.02 75.2599 202.02C69.6199 195.9 65.8399 188.34 63.9199 179.34L80.1199 169.08C84.5599 186.84 93.0199 195.72 105.5 195.72C111.14 195.72 115.76 193.98 119.36 190.5C122.96 186.9 124.76 182.34 124.76 176.82C124.76 172.98 123.44 169.62 120.8 166.74C118.16 163.74 114.86 161.34 110.9 159.54C106.94 157.62 102.62 155.46 97.9399 153.06C93.2599 150.66 88.9399 148.2 84.9799 145.68C81.0199 143.04 77.7199 139.44 75.0799 134.88C72.4399 130.2 71.1199 124.8 71.1199 118.68C71.1199 110.76 73.4599 103.8 78.1399 97.8C82.8199 91.9201 88.8799 88.1401 96.3199 86.4601V70.8H114.32V86.82C124.76 89.58 132.92 96.24 138.8 106.8Z" fill="white"/>
<path d="M195 228.225C189.39 228.225 184.487 227.15 180.292 225C176.045 222.798 172.768 219.678 170.461 215.64C168.154 211.551 167 206.753 167 201.247C167 196.948 167.839 193.094 169.517 189.685C171.195 186.277 173.554 183.524 176.596 181.427C179.637 179.33 183.15 178.071 187.135 177.652V189.449C183.989 190.131 181.524 191.573 179.742 193.775C177.906 195.925 176.989 198.625 176.989 201.876C176.989 206.281 178.64 209.768 181.944 212.337C185.247 214.906 189.599 216.191 195 216.191C200.348 216.191 204.7 214.906 208.056 212.337C211.36 209.768 213.011 206.281 213.011 201.876C213.011 198.625 212.12 195.925 210.337 193.775C208.502 191.573 206.011 190.131 202.865 189.449V177.652C206.85 178.071 210.363 179.33 213.404 181.427C216.446 183.524 218.805 186.277 220.483 189.685C222.161 193.094 223 196.948 223 201.247C223 206.753 221.846 211.551 219.539 215.64C217.232 219.678 213.981 222.798 209.787 225C205.539 227.15 200.61 228.225 195 228.225Z" fill="white"/>
<path d="M222.528 177.199L167.472 157.064L167.472 142.907L222.528 122.929L222.528 135.592L210.494 139.839V160.761L222.528 165.008V177.199ZM200.978 157.615V143.064L180.056 150.379L200.978 157.615Z" fill="white"/>
<path d="M167.472 117.876V98.7641C167.472 93.2584 168.652 88.4083 171.011 84.2135C173.318 79.9663 176.569 76.7154 180.764 74.4607C184.906 72.1536 189.652 71 195 71C200.348 71 205.12 72.1536 209.315 74.4607C213.457 76.7154 216.708 79.9663 219.067 84.2135C221.375 88.4083 222.528 93.2584 222.528 98.7641V117.876L167.472 117.876ZM212.697 98.7641C212.697 93.7828 211.097 89.9289 207.899 87.2023C204.648 84.4232 200.348 83.0337 195 83.0337C189.652 83.0337 185.378 84.4232 182.18 87.2023C178.929 89.9289 177.303 93.7828 177.303 98.7641V106.079L212.697 106.079V98.7641Z" fill="white"/>
</svg>

<svg viewBox="0 0 300 300" fill="none" xmlns="http://www.w3.org/2000/svg">
    <path d="M150 300c82.843 0 150-67.157 150-150S232.843 0 150 0 0 67.157 0 150s67.157 150 150 150z" fill="#10BA97"/>
    <path d="M138.8 106.8l-16.02 10.62c-4.92-9.24-11.16-13.86-18.72-13.86-3.96 0-7.14 1.32-9.54 3.96-2.4 2.52-3.6 5.76-3.6 9.72 0 7.68 6.36 14.52 19.08 20.52 5.16 2.28 9.24 4.26 12.24 5.94 3 1.56 6.54 3.9 10.62 7.02 4.08 3.12 7.08 6.78 9 10.98 2.04 4.2 3.06 9 3.06 14.4 0 9.72-2.82 18-8.46 24.84-5.52 6.72-12.9 10.92-22.14 12.6v15.66h-18v-15.66c-8.28-1.68-15.3-5.52-21.06-11.52-5.64-6.12-9.42-13.68-11.34-22.68l16.2-10.26c4.44 17.76 12.9 26.64 25.38 26.64 5.64 0 10.26-1.74 13.86-5.22 3.6-3.6 5.4-8.16 5.4-13.68 0-3.84-1.32-7.2-3.96-10.08-2.64-3-5.94-5.4-9.9-7.2a650.77 650.77 0 01-12.96-6.48c-4.68-2.4-9-4.86-12.96-7.38-3.96-2.64-7.26-6.24-9.9-10.8-2.64-4.68-3.96-10.08-3.96-16.2 0-7.92 2.34-14.88 7.02-20.88 4.68-5.88 10.74-9.66 18.18-11.34V70.8h18v16.02c10.44 2.76 18.6 9.42 24.48 19.98zM195 228.225c-5.61 0-10.513-1.075-14.708-3.225-4.247-2.202-7.524-5.322-9.831-9.36-2.307-4.089-3.461-8.887-3.461-14.393 0-4.299.839-8.153 2.517-11.562 1.678-3.408 4.037-6.161 7.079-8.258 3.041-2.097 6.554-3.356 10.539-3.775v11.797c-3.146.682-5.611 2.124-7.393 4.326-1.836 2.15-2.753 4.85-2.753 8.101 0 4.405 1.651 7.892 4.955 10.461 3.303 2.569 7.655 3.854 13.056 3.854 5.348 0 9.7-1.285 13.056-3.854 3.304-2.569 4.955-6.056 4.955-10.461 0-3.251-.891-5.951-2.674-8.101-1.835-2.202-4.326-3.644-7.472-4.326v-11.797c3.985.419 7.498 1.678 10.539 3.775 3.042 2.097 5.401 4.85 7.079 8.258 1.678 3.409 2.517 7.263 2.517 11.562 0 5.506-1.154 10.304-3.461 14.393-2.307 4.038-5.558 7.158-9.752 9.36-4.248 2.15-9.177 3.225-14.787 3.225zm27.528-51.026l-55.056-20.135v-14.157l55.056-19.978v12.663l-12.034 4.247v20.922l12.034 4.247v12.191zm-21.55-19.584v-14.551l-20.922 7.315 20.922 7.236zm-33.506-39.739V98.764c0-5.506 1.18-10.356 3.539-14.55 2.307-4.248 5.558-7.499 9.753-9.753C184.906 72.154 189.652 71 195 71c5.348 0 10.12 1.154 14.315 3.46 4.142 2.255 7.393 5.506 9.752 9.754 2.308 4.194 3.461 9.044 3.461 14.55v19.112h-55.056zm45.225-19.112c0-4.981-1.6-8.835-4.798-11.562-3.251-2.779-7.551-4.168-12.899-4.168-5.348 0-9.622 1.39-12.82 4.168-3.251 2.727-4.877 6.58-4.877 11.562v7.315h35.394v-7.315z" fill="#fff"/>
</svg>
